X: 20451
M: C
L: 1/16
K: D
d3e {de}f3e d3BA3F | D2A2 ({e}d2cd) e2E2E2A2 |\
d3e {de}f3e {c}d3BA3F | A3A B3c {c}d4 d2 |]\
(fg) |\
a3b {b}a2gf .d'2.a2.f2.d2 | .g2(bg) .f2(af) e2d2e2f2 |
a3b {b}a2(gf) .d'2.a2.f2.d2 | g3ef3c {c}d4 d2f2 |\
a3b ({b}a2gf) d'2a2f2d2 | (gbag) (fagf) e3de2f2 |\


